X: 1
T: Galway Belle - polka
R: polka
Z: 2009 John Chambers <jc:trillian.mit.edu>
M: 2/4
L: 1/16
K: Em
|: "Em"E3F G2A2 | B2e2 B4 | "D"A2F2 D2F2 |   E2F2 D2F2 |\
|  "Em"E3F G2A2 | B2e2 B4 | "D"A2F2 D2F2 | "Em"E4 E4 :|
|: "Em"e2e2 B4  | e2e2 B4 | "D"A2F2 D2F2 |   E2F2 D4  |\
|  "Em"e2e2 B4  | e2e2 B4 | "D"A2F2 D2F2 | "Em"E4 E4 ||
|| "Em"e2e2 B4  | e2e2 B4 | "D"A2F2 D2F2 | E2F2 D2F2 |\
|  "Em"E3F G2A2 | B2e2 B4 | "D"A2F2 D2F2 | "Em"E4 E4 :|
